Hatter-kde/actions/16/generalise.svg

<svg xmlns="http://www.w3.org/2000/svg" viewBox="0 0 16 16">
  <defs id="defs3051">
    <style type="text/css" id="current-color-scheme">
      .ColorScheme-Text {
        color:#363636;
      }
      </style>
  </defs>
 <path style="fill:currentColor;fill-opacity:0.5;stroke:none" 
     d="M 7.5 4.2363281 L 5.6171875 8 L 9.3828125 8 L 7.5 4.2363281 z "
     class="ColorScheme-Text"
     /> 
 <path style="fill:currentColor;fill-opacity:1;stroke:none" 
     d="M 7.5 2 L 4 9 L 5 9 L 5.1171875 9 L 7 9 L 7 14 L 8 14 L 8 9 L 9.8828125 9 L 10 9 L 11 9 L 7.5 2 z M 7.5 4.2363281 L 9.3828125 8 L 5.6171875 8 L 7.5 4.2363281 z "
     class="ColorScheme-Text"
     /> 
</svg>

<?xml version="1.0" encoding="UTF-8"?>
<svg viewBox="0 0 16 16" xmlns="http://www.w3.org/2000/svg">
 <defs id="defs3051">
  <style id="current-color-scheme" type="text/css">.ColorScheme-Text {
        color:#363636;
      }</style>
 </defs>
 <path class="ColorScheme-Text" d="m7.5 4.2363-1.8828 3.7637h3.7656l-1.8828-3.7637z" fill="currentColor" fill-opacity=".5"/>
 <path class="ColorScheme-Text" d="m7.5 2-3.5 7h1 0.11719 1.8828v5h1v-5h1.8828 0.11719 1l-3.5-7zm0 2.2363 1.8828 3.7637h-3.7656l1.8828-3.7637z" fill="currentColor"/>
</svg>
